X:1
T:The Good Shepherd
T:The Good Shepherd
T:Charles Hutchinson Gabriel
T:J. M. Slusser, 1906
T:Public Domain Courtesy of the Cyber Hymnal™
T:Public Domain Courtesy of the Cyber Hymnal™
C:Charles Hutchinson Gabriel
Z:Public Domain
Z:Courtesy of the Cyber Hymnal™
%%score ( 1 2 ) ( 3 4 )
L:1/8
Q:1/4=100
M:4/4
K:A
V:1 treble 
V:2 treble 
V:3 bass 
V:4 bass 
V:1
 [CE][CE] | [DF]2 A2 [CA]2 [CE][CE] | [DF]2 A2 [CA]2 [CA][D=B] | [Ec]2 [Ec]2 [Ee]2 [Ec][EB] | %4
w: 1.~When the|wea- ry tasks of the|day are done, And our|spir- its wel- come the|
w: 2.~Oh, the|path was rough, and our|hearts are sore, For we|lost the way, with the|
w: 3.~Oh, the|blind- ing dust and the|cru- el thorn! Is there|room for such a torn,|
w: 4.~Oh, He|knows the thorns, for they|pierced His brow, Yet He|loved men then, and He|
 [EA]2 [^DB]2 [=DB]2 [Ec][DB] | [CA]2 [Ec]2 [CE]2 [CE][CE] | [DF]2 [DF][DF] A4 | B4 B4 | %8
w: set- ting sun, In the|twi- light hush, lo! The|good Shep- herd stands,|call- ing,|
w: load we bore; Bless- èd|sha- dows, fall, for The|good Shep- herd stands,|call- ing,|
w: black- ened form? Hark! I|hear my name, for The|good Shep- herd stands,|call- ing,|
w: loves us now, Spite of|stain and sin: still The|good Shep- herd stands,|call- ing,|
 (B2 c2) !fermata![Gd]4 ||[M:3/4]"^Refrain"[Q:1/4=110] [Ec]2 [DA]2 [CA]2 | [Ec]6 | %11
w: call- * ing:|||
w: call- * ing:|“I am the|door,|
w: call- * ing:|||
w: call- * ing:|||
 [CE]2 [B,D]2 [A,C]2 | [CE]6 | [DG]4 [DA]2 | [DG]2 [DB]4 | [CA]4 [DB]2 | [CA]2 [CE]4 | %17
w: ||||||
w: I am the|door;|You are|bruis- èd,|ye are|thirst- y;|
w: ||||||
w: ||||||
 [Ec]2 [DB]2 [CA]2 | [Ec]2 [EB]2 [EA]2 | (d4 A2) | A2 G2 A2 | e6- | !fermata![Ee]2 [Ec]2 [EA]2 | %23
w: ||||||
w: Come, be healed|and re- freshed,|And *|go in and|out,|* and find|
w: ||||||
w: ||||||
 [DB]6 | [CA]4 |] %25
w: ||
w: pas-|ture.”|
w: ||
w: ||
V:2
 x2 | x2 (D^B,) x4 | x2 (D^B,) x4 | x8 | x8 | x8 | x4 (F2 E2) | (E2 ^D2) (E2 D2) | E4 x4 || %9
[M:3/4] x6 | x6 | x6 | x6 | x6 | x6 | x6 | x6 | x6 | x6 | D6 | ^D6 | E2 E2 E2 | x6 | x6 | x4 |] %25
V:3
 [A,,A,][A,,A,] | [A,,A,]2 (F,=F,) [A,,E,]2 [A,,A,][A,,A,] | %2
 [A,,A,]2 (F,=F,) [A,,E,]2 [A,,E,][A,,E,] | [A,,A,]2 [A,,A,]2 [A,C]2 [A,,A,][B,,G,] | %4
 [C,A,]2 [B,,A,]2 [E,G,]2 [E,G,][E,G,] | [A,,A,]2 [A,,A,]2 [A,,A,]2 [A,,A,][A,,A,] | %6
 [D,A,]2 [D,A,][D,A,] A,4 | ([B,,G,]2 [A,,F,]2) ([G,,E,]2 [F,,A,]2) | (G,2 A,2) [E,,E,B,]4 || %9
[M:3/4] [A,,A,]2 [A,,E,]2 [A,,E,]2 | [A,,A,]6 | [A,,A,]2 [A,,E,]2 [A,,E,]2 | [A,,A,]6 | %13
 [B,,E,]4 [B,,E,]2 | E,2 [E,G,]4 | [A,,A,]4 [A,,A,]2 | [A,,E,]2 [A,,A,]4 | A,4 A,2 | %18
 [=G,A,]2 [G,C]2 [G,C]2 | [F,A,]6 | [=F,^B,]6 | ([E,C]2 [C,A,]2 [E,C]2 | %22
 !fermata![A,C]2) [A,,A,]2 [B,,A,]2 | [E,G,]6 | [A,,E,]4 |] %25
V:4
 x2 | x2 A,,2 x4 | x2 A,,2 x4 | x8 | x8 | x8 | x4 (D,2 C,2) | x8 | [E,,E,]4 x4 ||[M:3/4] x6 | x6 | %11
 x6 | x6 | x6 | E,2 x4 | x6 | x6 | A,4 A,2 | x6 | x6 | x6 | x6 | x6 | x6 | x4 |] %25

